icon/lg/intel.svg

<?xml version="1.0" encoding="UTF-8"?>
<svg viewBox="0 0 512 216" version="1.1" xmlns="http://www.w3.org/2000/svg" preserveAspectRatio="xMidYMid" height="1em" width="1em">
  <g>
    <rect fill="#00C7FD" x="1.52856252e-14" y="3.01176471" width="40.3002801" height="40.3002801"/>
    <path d="M39.2963585,212.97479 L39.2963585,67.6929972 L1.00392157,67.6929972 L1.00392157,212.831373 L39.2963585,212.831373 L39.2963585,212.97479 Z M292.858263,214.408964 L292.858263,178.841457 C287.264986,178.841457 282.532213,178.554622 279.090196,177.980952 C275.07451,177.407283 272.062745,175.973109 270.054902,173.965266 C268.047059,171.957423 266.756303,169.089076 266.039216,165.216807 C265.465546,161.631373 265.178711,156.898599 265.178711,151.161905 L265.178711,100.535574 L292.858263,100.535574 L292.858263,67.6929972 L265.178711,67.6929972 L265.178711,11.1865546 L226.886275,11.1865546 L226.886275,151.592157 C226.886275,163.495798 227.890196,173.535014 229.898039,181.566387 C231.905882,189.454342 235.347899,195.908123 240.080672,200.784314 C244.813445,205.660504 251.12381,209.102521 258.72493,211.253782 C266.469468,213.405042 276.221849,214.408964 287.838655,214.408964 L292.858263,214.408964 L292.858263,214.408964 Z M512,212.97479 L512,0 L473.707563,0 L473.707563,212.97479 L512,212.97479 Z M190.028011,82.0347339 C179.415126,70.5613445 164.49972,64.8246499 145.568627,64.8246499 C136.389916,64.8246499 127.928291,66.6890756 120.470588,70.4179272 C112.869468,74.1467787 106.559104,79.3098039 101.396078,85.9070028 L99.3882353,88.6319328 L99.3882353,86.1938375 L99.3882353,67.6929972 L61.6694678,67.6929972 L61.6694678,212.831373 L99.67507,212.831373 L99.67507,135.529412 L99.67507,140.835854 C99.67507,139.97535 99.67507,139.114846 99.67507,138.254342 C100.105322,124.629692 103.403922,114.590476 109.714286,108.136695 C116.454902,101.252661 124.629692,97.8106443 133.951821,97.8106443 C144.994958,97.8106443 153.456583,101.252661 159.04986,107.84986 C164.49972,114.447059 167.368067,123.769188 167.368067,135.672829 L167.368067,135.672829 L167.368067,136.103081 C167.368067,136.103081 167.368067,136.103081 167.368067,136.103081 L167.368067,136.103081 L167.368067,212.831373 L205.947339,212.831373 L205.947339,130.509804 C206.090756,109.857703 200.640896,93.5081232 190.028011,82.0347339 Z M453.915966,140.118768 C453.915966,129.6493 452.051541,119.896919 448.466106,110.718207 C444.737255,101.682913 439.57423,93.6515406 433.120448,86.767507 C426.523249,79.8834734 418.635294,74.5770308 409.456583,70.7047619 C400.277871,66.832493 390.095238,64.9680672 379.052101,64.9680672 C368.582633,64.9680672 358.686835,66.9759104 349.508123,70.8481793 C340.329412,74.8638655 332.298039,80.1703081 325.557423,86.9109244 C318.816807,93.6515406 313.366947,101.682913 309.494678,110.861625 C305.478992,120.040336 303.614566,129.936134 303.614566,140.405602 C303.614566,150.87507 305.478992,160.770868 309.207843,169.94958 C312.936695,179.128291 318.243137,187.159664 324.840336,193.90028 C331.437535,200.640896 339.612325,206.090756 349.077871,209.963025 C358.543417,213.978711 369.012885,215.986555 380.19944,215.986555 C412.611765,215.986555 432.690196,201.214566 444.737255,187.446499 L417.20112,166.507563 C411.464426,173.391597 397.696359,182.713725 380.486275,182.713725 C369.729972,182.713725 360.838095,180.27563 354.097479,175.256022 C347.356863,170.379832 342.767507,163.495798 340.329412,155.034174 L339.89916,153.743417 L453.915966,153.743417 L453.915966,140.118768 L453.915966,140.118768 Z M340.185994,126.780952 C340.185994,116.168067 352.376471,97.6672269 378.621849,97.5238095 C404.867227,97.5238095 417.20112,116.02465 417.20112,126.637535 L340.185994,126.780952 Z" fill="#000000"/>
  </g>
</svg>

<svg width="512" height="216" xmlns="http://www.w3.org/2000/svg" preserveAspectRatio="xMidYMid"><path fill="#00C7FD" d="M0 3.012h40.3v40.3H0z"/><path d="M39.296 212.975V67.693H1.004v145.138h38.292v.144Zm253.562 1.434v-35.568c-5.593 0-10.326-.286-13.768-.86-4.015-.574-7.027-2.008-9.035-4.016s-3.299-4.876-4.016-8.748c-.573-3.586-.86-8.318-.86-14.055v-50.626h27.68V67.693h-27.68V11.187h-38.293v140.405c0 11.904 1.004 21.943 3.012 29.974 2.008 7.888 5.45 14.342 10.183 19.218 4.732 4.877 11.043 8.319 18.644 10.47 7.744 2.151 17.497 3.155 29.114 3.155h5.02ZM512 212.975V0h-38.292v212.975H512ZM190.028 82.035c-10.613-11.474-25.528-17.21-44.46-17.21-9.178 0-17.64 1.864-25.097 5.593-7.602 3.729-13.912 8.892-19.075 15.489l-2.008 2.725V67.693H61.67v145.138h38.006V135.53v5.307-2.582c.43-13.624 3.729-23.664 10.04-30.117 6.74-6.884 14.915-10.326 24.237-10.326 11.043 0 19.505 3.442 25.098 10.039 5.45 6.597 8.318 15.92 8.318 27.823v77.158h38.58V130.51c.143-20.652-5.307-37.002-15.92-48.475Zm263.888 58.084c0-10.47-1.864-20.222-5.45-29.4-3.729-9.036-8.892-17.067-15.346-23.951-6.597-6.885-14.485-12.191-23.663-16.063-9.18-3.873-19.362-5.737-30.405-5.737-10.47 0-20.365 2.008-29.544 5.88-9.179 4.016-17.21 9.322-23.95 16.063-6.741 6.74-12.191 14.772-16.063 23.95-4.016 9.18-5.88 19.075-5.88 29.545 0 10.47 1.864 20.365 5.593 29.544 3.729 9.178 9.035 17.21 15.632 23.95 6.598 6.74 14.772 12.19 24.238 16.063 9.465 4.016 19.935 6.024 31.121 6.024 32.413 0 52.491-14.772 64.538-28.54l-27.536-20.94c-5.737 6.885-19.505 16.207-36.715 16.207-10.756 0-19.648-2.438-26.389-7.458-6.74-4.876-11.33-11.76-13.768-20.222l-.43-1.29h114.017v-13.625Zm-113.73-13.338c0-10.613 12.19-29.114 38.436-29.257 26.245 0 38.58 18.5 38.58 29.114l-77.016.143Z"/></svg>
